X:23
T:tempo changes
M:4/4
L:1/8
Q:110 %test de commentaire
K:C
CDEF|GABc|defg|ab
Q:C2=110
CDEF|GABc|defg|ab
Q:180
CDEF|GABc|defg|ab
Q:1/8=115
CDEF|GABc|defg|ab
Q:C2=180
CDEF|GABc|defg|ab

